X: 3020
T: DAFT WILLIE DAWSON
Q:"Reel."
R: Reel.
%R:reel
B: James Kerr "Merry Melodies" v.3 p.5 #20
Z: 2016 John Chambers <jc:trillian.mit.edu>
M: C
L: 1/8
K: D
A |\
F>D D/D/D (A,D)DG | FDDG F/G/A/F/ DF |\
G>E E/E/E (B,E)EF | GEEd c/d/e/c/ Ac |\
d>D D/D/D (A,D)DG | FDDG F/G/A/F/ DF |\
GBEG FAdA | ceAc d/d/d d |]
g |\
fdad bdag | fddg f/g/a/f/ df |\
gebe geef | gebe g/a/b/g/ eg |\
fdad bdag | fddg f/g/a/f/ df |\
gbeg fadf | ceAc d/d/d d |]

%%sep 1 1 500
%%sep 1 1 500

